symbols/web/browse/materialsymbolssharp/browse_wght300_24px.svg

<svg xmlns="http://www.w3.org/2000/svg" height="24" viewBox="0 -960 960 960" width="24"><path d="M140.001-140.001V-360H440v219.999H140.001Zm379.999 0V-520h299.999v379.999H520Zm-139.999-160Zm199.998-160ZM140.001-440v-379.999H440V-440H140.001Zm240-59.999ZM520-600v-219.999h299.999V-600H520Zm59.999-59.999ZM200-200h180.001v-100.001H200V-200Zm379.999 0H760v-260.001H579.999V-200ZM200-499.999h180.001V-760H200v260.001Zm379.999-160H760V-760H579.999v100.001Z"/></svg>

<svg xmlns="http://www.w3.org/2000/svg" height="24" viewBox="0 -960 960 960" width="24"><path d="M140-140v-220h300v220H140Zm380 0v-380h300v380H520ZM380-300Zm200-160Zm-440 20v-380h300v380H140Zm240-60Zm140-100v-220h300v220H520Zm60-60ZM200-200h180v-100H200v100Zm380 0h180v-260H580v260ZM200-500h180v-260H200v260Zm380-160h180v-100H580v100Z"/></svg>
